packages/ffe-icons/icons/open/400/sm/format_image_left.svg

<svg xmlns="http://www.w3.org/2000/svg" height="20" viewBox="0 -960 960 960" width="20"><path d="M180-288q-15.3 0-25.65-10.35Q144-308.7 144-324v-312q0-15.3 10.35-25.65Q164.7-672 180-672h312q15.3 0 25.65 10.35Q528-651.3 528-636v312q0 15.3-10.35 25.65Q507.3-288 492-288H180Zm36-72h240v-240H216v240Zm-36-384q-15.3 0-25.65-10.289-10.35-10.29-10.35-25.5Q144-795 154.35-805.5 164.7-816 180-816h600q15.3 0 25.65 10.289 10.35 10.29 10.35 25.5Q816-765 805.65-754.5 795.3-744 780-744H180Zm456.276 144Q621-600 610.5-610.289q-10.5-10.29-10.5-25.5Q600-651 610.334-661.5q10.334-10.5 25.611-10.5h143.779Q795-672 805.5-661.711q10.5 10.29 10.5 25.5Q816-621 805.666-610.5 795.332-600 780.055-600H636.276Zm0 156Q621-444 610.5-454.289q-10.5-10.29-10.5-25.5Q600-495 610.334-505.5q10.334-10.5 25.611-10.5h143.779Q795-516 805.5-505.711q10.5 10.29 10.5 25.5Q816-465 805.666-454.5 795.332-444 780.055-444H636.276Zm0 156Q621-288 610.5-298.289q-10.5-10.29-10.5-25.5Q600-339 610.334-349.5q10.334-10.5 25.611-10.5h143.779Q795-360 805.5-349.711q10.5 10.29 10.5 25.5Q816-309 805.666-298.5 795.332-288 780.055-288H636.276ZM180-144q-15.3 0-25.65-10.289-10.35-10.29-10.35-25.5Q144-195 154.35-205.5 164.7-216 180-216h600q15.3 0 25.65 10.289 10.35 10.29 10.35 25.5Q816-165 805.65-154.5 795.3-144 780-144H180Z"/></svg>

<svg xmlns="http://www.w3.org/2000/svg" height="20" viewBox="0 -960 960 960" width="20"><path d="M180-288q-15.3 0-25.65-10.35Q144-308.7 144-324v-312q0-15.3 10.35-25.65Q164.7-672 180-672h312q15.3 0 25.65 10.35Q528-651.3 528-636v312q0 15.3-10.35 25.65Q507.3-288 492-288H180Zm36-72h240v-240H216v240Zm-36-384q-15.3 0-25.65-10.29Q144-764.58 144-779.79t10.35-25.71Q164.7-816 180-816h600q15.3 0 25.65 10.29Q816-795.42 816-780.21t-10.35 25.71Q795.3-744 780-744H180Zm456.28 144q-15.28 0-25.78-10.29-10.5-10.29-10.5-25.5t10.33-25.71q10.34-10.5 25.61-10.5h143.78q15.28 0 25.78 10.29 10.5 10.29 10.5 25.5t-10.33 25.71Q795.33-600 780.06-600H636.28Zm0 156q-15.28 0-25.78-10.29-10.5-10.29-10.5-25.5t10.33-25.71q10.34-10.5 25.61-10.5h143.78q15.28 0 25.78 10.29 10.5 10.29 10.5 25.5t-10.33 25.71Q795.33-444 780.06-444H636.28Zm0 156q-15.28 0-25.78-10.29-10.5-10.29-10.5-25.5t10.33-25.71q10.34-10.5 25.61-10.5h143.78q15.28 0 25.78 10.29 10.5 10.29 10.5 25.5t-10.33 25.71Q795.33-288 780.06-288H636.28ZM180-144q-15.3 0-25.65-10.29Q144-164.58 144-179.79t10.35-25.71Q164.7-216 180-216h600q15.3 0 25.65 10.29Q816-195.42 816-180.21t-10.35 25.71Q795.3-144 780-144H180Z"/></svg>
